X:0
T:How Many Miles to Babylon
G:children's game song
B:James Ritchie: The Golden City
M:C|
L:1/8
Q:1/2=76
K:F
AA/A/ AA GFF2|A2AA G3 A|cccc AFF2|GFGA     F4   |
AA/A/ AA GFF2|AAAA GFF2|ccc2 AFF2|GF/F/ GA GFF2|]
